X:26
T:The Glenlivet
C: J. Scott Skinner
R: strathspey
M:C
L:1/8
U: N=!tenuto!
Z: Jason R. Fruit <jason@starlight-glimmer>
K:A
{!f!B,A,G,}A,>>C (E>>NC) ([DD]>>NF) ([AA]>>NF) | [EC]>>Ac>>A B<<B,"_~""_#"B,>C | "^4 down" (A,>CE>).C "^4 up"([DD]>FA)>.F | [EC]>A G<e c<A [AC]2 |
(A,>>NC) (E>>NC) [DD]>>F [AA]>>F | [EC]>A .d/.c/.B/.A/ B<<B,"_~""_#"B,>C | (A,>CE>).C ([DD]>F[AA])>.F | [EC]>A G<e c<A [AC] ||
g | {g}a>A c<f [ee]>Ac>A | ([EC]>NA) c>A B<B,"_~""_#"B,>g | {g}a>A c<f [ee]>Ac>A | [EC]>A G<e c<A !>![AC]>g |
{g}a>A c<f e<A {g}a>A | e>Ac>A B<B,"_~""_#"B,>C | (A,>>CE>>)C ([DD]>>F[AA])>>F | ([EC]>NA) (G<e) c<A [AC]2 |]

